X:59
T: Liangzhu xia shan
N: C1557
O: China,bei Liaoning, Haicheng
S: III, 265]
R: Xiaodiao, Mengjiangn diao, liangshanbo yu zhuyingtai de gushi]
M: 2/4
L: 1/16
K: F
d2edc2A2 | d2edc2A2 | dcdfdcA2 | G8 |
g2g4e2 | d2fdc2A2 | G2AGE2D2 | D2C4
A,2 | D6F2 | G4c2A2 | G2AGE2D2 | C6
A,2 | G2G2D2F2 | G3FG4 |
z2A4A2 | d4f4 | G6E2 | D2D4A,2 | C8

@@@ Tune index: 6614
